X:1
T: The Merry Lads of Foss
C:
R:Reel
Q: 232
K:D
M:4/4
L:1/8
|:G|FA AA B2 Ac|dA FD GE EG|FA AA B2 Ag|fd ef dd dG|
FA AA B2 Ac|dA FD GE EG|FA AA B2 Ag|fd ef dd dg|
f2 df ae eg|f2 df eB Bg|f2 df ae eg|fa ef dd dg|
f2 df ae eg|f2 df eB Bg|f2 df ae eg|fd ef dd d:|
